public/assets/coupons/coupon-divider.svg

<?xml version="1.0" encoding="UTF-8" standalone="no"?>
<svg
   width="361.5"
   height="29.5"
   viewBox="0 0 361.5 29.5"
   version="1.1"
   id="svg40"
   xmlns="http://www.w3.org/2000/svg"
   xmlns:svg="http://www.w3.org/2000/svg">
  <defs
     id="defs44" />
  <!-- Soft shadow -->
  <ellipse
     cx="181.5"
     cy="21.5"
     rx="180"
     ry="8"
     fill="#000000"
     opacity="0.06"
     id="ellipse2" />
  <!-- Left dotted line -->
  <line
     x1="1.5"
     y1="11.5"
     x2="121.5"
     y2="11.5"
     stroke="#8b6f47"
     stroke-width="3"
     stroke-dasharray="6, 4"
     stroke-linecap="round"
     id="line4" />
  <!-- Left heart -->
  <g
     id="g12"
     transform="translate(-18.5,-28.5)">
    <!-- White sticker border -->
    <path
       d="m 160,45 c 0,0 -5,-3 -5,-6 0,-2 1,-3 2.5,-3 1,0 1.5,1 2.5,2 1,-1 1.5,-2 2.5,-2 1.5,0 2.5,1 2.5,3 0,3 -5,6 -5,6 z"
       fill="#ffffff"
       id="path6" />
    <!-- Cocoa outline -->
    <path
       d="m 160,44 c 0,0 -4,-2.5 -4,-5 0,-1.5 0.5,-2 1.5,-2 1,0 1.5,0.5 2.5,1.5 1,-1 1.5,-1.5 2.5,-1.5 1,0 1.5,0.5 1.5,2 0,2.5 -4,5 -4,5 z"
       fill="none"
       stroke="#8b6f47"
       stroke-width="2"
       id="path8" />
    <!-- Baby pink fill -->
    <path
       d="m 160,43 c 0,0 -3,-2 -3,-4 0,-1 0.5,-1.5 1,-1.5 0.5,0 1,0.5 2,1.5 1,-1 1.5,-1.5 2,-1.5 0.5,0 1,0.5 1,1.5 0,2 -3,4 -3,4 z"
       fill="#ffd4e5"
       id="path10" />
  </g>
  <!-- Center heart -->
  <g
     id="g20"
     transform="translate(-18.5,-28.5)">
    <!-- White sticker border -->
    <path
       d="m 200,45 c 0,0 -5,-3 -5,-6 0,-2 1,-3 2.5,-3 1,0 1.5,1 2.5,2 1,-1 1.5,-2 2.5,-2 1.5,0 2.5,1 2.5,3 0,3 -5,6 -5,6 z"
       fill="#ffffff"
       id="path14" />
    <!-- Cocoa outline -->
    <path
       d="m 200,44 c 0,0 -4,-2.5 -4,-5 0,-1.5 0.5,-2 1.5,-2 1,0 1.5,0.5 2.5,1.5 1,-1 1.5,-1.5 2.5,-1.5 1,0 1.5,0.5 1.5,2 0,2.5 -4,5 -4,5 z"
       fill="none"
       stroke="#8b6f47"
       stroke-width="2"
       id="path16" />
    <!-- Soft peach fill -->
    <path
       d="m 200,43 c 0,0 -3,-2 -3,-4 0,-1 0.5,-1.5 1,-1.5 0.5,0 1,0.5 2,1.5 1,-1 1.5,-1.5 2,-1.5 0.5,0 1,0.5 1,1.5 0,2 -3,4 -3,4 z"
       fill="#ffdab9"
       id="path18" />
  </g>
  <!-- Right heart -->
  <g
     id="g28"
     transform="translate(-18.5,-28.5)">
    <!-- White sticker border -->
    <path
       d="m 240,45 c 0,0 -5,-3 -5,-6 0,-2 1,-3 2.5,-3 1,0 1.5,1 2.5,2 1,-1 1.5,-2 2.5,-2 1.5,0 2.5,1 2.5,3 0,3 -5,6 -5,6 z"
       fill="#ffffff"
       id="path22" />
    <!-- Cocoa outline -->
    <path
       d="m 240,44 c 0,0 -4,-2.5 -4,-5 0,-1.5 0.5,-2 1.5,-2 1,0 1.5,0.5 2.5,1.5 1,-1 1.5,-1.5 2.5,-1.5 1,0 1.5,0.5 1.5,2 0,2.5 -4,5 -4,5 z"
       fill="none"
       stroke="#8b6f47"
       stroke-width="2"
       id="path24" />
    <!-- Baby pink fill -->
    <path
       d="m 240,43 c 0,0 -3,-2 -3,-4 0,-1 0.5,-1.5 1,-1.5 0.5,0 1,0.5 2,1.5 1,-1 1.5,-1.5 2,-1.5 0.5,0 1,0.5 1,1.5 0,2 -3,4 -3,4 z"
       fill="#ffd4e5"
       id="path26" />
  </g>
  <!-- Right dotted line -->
  <line
     x1="241.5"
     y1="11.5"
     x2="361.5"
     y2="11.5"
     stroke="#8b6f47"
     stroke-width="3"
     stroke-dasharray="6, 4"
     stroke-linecap="round"
     id="line30" />
  <!-- Tiny sparkles -->
  <circle
     cx="91.5"
     cy="6.5"
     r="2"
     fill="#ffffff"
     opacity="0.7"
     id="circle32" />
  <circle
     cx="271.5"
     cy="6.5"
     r="2"
     fill="#ffffff"
     opacity="0.7"
     id="circle34" />
  <!-- Tiny accent hearts (very small) -->
  <path
     d="m 156.5,1.5 c 0,-1 0.5,-1.5 1,-1.5 0.5,0 0.5,0.5 0.5,0.5 0,0 0.5,-0.5 0.5,-0.5 0.5,0 1,0.5 1,1.5 0,1 -1.5,2 -1.5,2 0,0 -1.5,-1 -1.5,-2 z"
     fill="#ffb6c1"
     opacity="0.5"
     id="path36" />
  <path
     d="m 203.5,1.5 c 0,-1 0.5,-1.5 1,-1.5 0.5,0 0.5,0.5 0.5,0.5 0,0 0.5,-0.5 0.5,-0.5 0.5,0 1,0.5 1,1.5 0,1 -1.5,2 -1.5,2 0,0 -1.5,-1 -1.5,-2 z"
     fill="#ffb6c1"
     opacity="0.5"
     id="path38" />
</svg>

<svg width="400" height="80" viewBox="0 0 400 80" xmlns="http://www.w3.org/2000/svg">
  <!-- Soft shadow -->
  <ellipse cx="200" cy="50" rx="180" ry="8" fill="#000000" opacity="0.06"/>
  
  <!-- Left dotted line -->
  <line x1="20" y1="40" x2="140" y2="40" stroke="#8B6F47" stroke-width="3" stroke-dasharray="6,4" stroke-linecap="round"/>
  
  <!-- Left heart -->
  <g>
    <!-- White sticker border -->
    <path d="M 160 45 C 160 45 155 42 155 39 C 155 37 156 36 157.5 36 C 158.5 36 159 37 160 38 C 161 37 161.5 36 162.5 36 C 164 36 165 37 165 39 C 165 42 160 45 160 45 Z" fill="#FFFFFF"/>
    
    <!-- Cocoa outline -->
    <path d="M 160 44 C 160 44 156 41.5 156 39 C 156 37.5 156.5 37 157.5 37 C 158.5 37 159 37.5 160 38.5 C 161 37.5 161.5 37 162.5 37 C 163.5 37 164 37.5 164 39 C 164 41.5 160 44 160 44 Z" fill="none" stroke="#8B6F47" stroke-width="2"/>
    
    <!-- Baby pink fill -->
    <path d="M 160 43 C 160 43 157 41 157 39 C 157 38 157.5 37.5 158 37.5 C 158.5 37.5 159 38 160 39 C 161 38 161.5 37.5 162 37.5 C 162.5 37.5 163 38 163 39 C 163 41 160 43 160 43 Z" fill="#FFD4E5"/>
  </g>
  
  <!-- Center heart -->
  <g>
    <!-- White sticker border -->
    <path d="M 200 45 C 200 45 195 42 195 39 C 195 37 196 36 197.5 36 C 198.5 36 199 37 200 38 C 201 37 201.5 36 202.5 36 C 204 36 205 37 205 39 C 205 42 200 45 200 45 Z" fill="#FFFFFF"/>
    
    <!-- Cocoa outline -->
    <path d="M 200 44 C 200 44 196 41.5 196 39 C 196 37.5 196.5 37 197.5 37 C 198.5 37 199 37.5 200 38.5 C 201 37.5 201.5 37 202.5 37 C 203.5 37 204 37.5 204 39 C 204 41.5 200 44 200 44 Z" fill="none" stroke="#8B6F47" stroke-width="2"/>
    
    <!-- Soft peach fill -->
    <path d="M 200 43 C 200 43 197 41 197 39 C 197 38 197.5 37.5 198 37.5 C 198.5 37.5 199 38 200 39 C 201 38 201.5 37.5 202 37.5 C 202.5 37.5 203 38 203 39 C 203 41 200 43 200 43 Z" fill="#FFDAB9"/>
  </g>
  
  <!-- Right heart -->
  <g>
    <!-- White sticker border -->
    <path d="M 240 45 C 240 45 235 42 235 39 C 235 37 236 36 237.5 36 C 238.5 36 239 37 240 38 C 241 37 241.5 36 242.5 36 C 244 36 245 37 245 39 C 245 42 240 45 240 45 Z" fill="#FFFFFF"/>
    
    <!-- Cocoa outline -->
    <path d="M 240 44 C 240 44 236 41.5 236 39 C 236 37.5 236.5 37 237.5 37 C 238.5 37 239 37.5 240 38.5 C 241 37.5 241.5 37 242.5 37 C 243.5 37 244 37.5 244 39 C 244 41.5 240 44 240 44 Z" fill="none" stroke="#8B6F47" stroke-width="2"/>
    
    <!-- Baby pink fill -->
    <path d="M 240 43 C 240 43 237 41 237 39 C 237 38 237.5 37.5 238 37.5 C 238.5 37.5 239 38 240 39 C 241 38 241.5 37.5 242 37.5 C 242.5 37.5 243 38 243 39 C 243 41 240 43 240 43 Z" fill="#FFD4E5"/>
  </g>
  
  <!-- Right dotted line -->
  <line x1="260" y1="40" x2="380" y2="40" stroke="#8B6F47" stroke-width="3" stroke-dasharray="6,4" stroke-linecap="round"/>
  
  <!-- Tiny sparkles -->
  <circle cx="110" cy="35" r="2" fill="#FFFFFF" opacity="0.7"/>
  <circle cx="290" cy="35" r="2" fill="#FFFFFF" opacity="0.7"/>
  
  <!-- Tiny accent hearts (very small) -->
  <path d="M 175 30 C 175 29 175.5 28.5 176 28.5 C 176.5 28.5 176.5 29 176.5 29 C 176.5 29 177 28.5 177 28.5 C 177.5 28.5 178 29 178 30 C 178 31 176.5 32 176.5 32 C 176.5 32 175 31 175 30 Z" fill="#FFB6C1" opacity="0.5"/>
  
  <path d="M 222 30 C 222 29 222.5 28.5 223 28.5 C 223.5 28.5 223.5 29 223.5 29 C 223.5 29 224 28.5 224 28.5 C 224.5 28.5 225 29 225 30 C 225 31 223.5 32 223.5 32 C 223.5 32 222 31 222 30 Z" fill="#FFB6C1" opacity="0.5"/>
</svg>
